app/client/src/assets/icons/blueprintjs/20px/fork.svg

<svg xmlns="http://www.w3.org/2000/svg" xml:space="preserve" viewBox="0 0 20 20"><path fill-rule="evenodd" d="M16.71 11.29a1.003 1.003 0 0 0-1.42 1.42l1.3 1.29h-2.17l-8-8h10.17L15.3 7.29c-.19.18-.3.43-.3.71a1.003 1.003 0 0 0 1.71.71l3-3c.18-.18.29-.43.29-.71 0-.28-.11-.53-.29-.71l-3-3a1.003 1.003 0 0 0-1.42 1.42L16.59 4H1c-.55 0-1 .45-1 1s.45 1 1 1h2.59l9.71 9.71c.17.18.42.29.7.29h2.59l-1.29 1.29c-.19.18-.3.43-.3.71a1.003 1.003 0 0 0 1.71.71l3-3c.18-.18.29-.43.29-.71 0-.28-.11-.53-.29-.71l-3-3z" clip-rule="evenodd"/></svg>

<?xml version="1.0" encoding="utf-8"?>
<!-- Generator: Adobe Illustrator 17.1.0, SVG Export Plug-In . SVG Version: 6.00 Build 0)  -->
<!DOCTYPE svg PUBLIC "-//W3C//DTD SVG 1.1//EN" "http://www.w3.org/Graphics/SVG/1.1/DTD/svg11.dtd">
<svg version="1.1" id="Layer_1" xmlns="http://www.w3.org/2000/svg" xmlns:xlink="http://www.w3.org/1999/xlink" x="0px" y="0px"
	 viewBox="0 0 20 20" enable-background="new 0 0 20 20" xml:space="preserve">
<g id="fork_1_">
	<g>
		<path fill-rule="evenodd" clip-rule="evenodd" d="M16.71,11.29C16.53,11.11,16.28,11,16,11c-0.55,0-1,0.45-1,1
			c0,0.28,0.11,0.53,0.29,0.71L16.59,14h-2.17l-8-8h10.17l-1.29,1.29C15.11,7.47,15,7.72,15,8c0,0.55,0.45,1,1,1
			c0.28,0,0.53-0.11,0.71-0.29l3-3C19.89,5.53,20,5.28,20,5c0-0.28-0.11-0.53-0.29-0.71l-3-3C16.53,1.11,16.28,1,16,1
			c-0.55,0-1,0.45-1,1c0,0.28,0.11,0.53,0.29,0.71L16.59,4H1C0.45,4,0,4.45,0,5c0,0.55,0.45,1,1,1h2.59l9.71,9.71
			C13.47,15.89,13.72,16,14,16h2.59l-1.29,1.29C15.11,17.47,15,17.72,15,18c0,0.55,0.45,1,1,1c0.28,0,0.53-0.11,0.71-0.29l3-3
			C19.89,15.53,20,15.28,20,15c0-0.28-0.11-0.53-0.29-0.71L16.71,11.29z"/>
	</g>
</g>
</svg>
